assets/svg/1F559.svg

<svg xmlns="http://www.w3.org/2000/svg" viewBox="0 0 64 64" enable-background="new 0 0 64 64"><path fill="#e0e7ec" d="m61.827 32.1c0 16.419-13.312 29.73-29.732 29.73s-29.733-13.311-29.733-29.73c0-16.423 13.312-29.734 29.732-29.734s29.733 13.311 29.733 29.734"/><path fill="#d1d7da" d="m52.46 47.31c-16.423 0-29.734-13.311-29.734-29.734 0-5.459 1.497-10.559 4.063-14.957-13.821 2.556-24.298 14.653-24.298 29.22 0 16.419 13.312 29.73 29.732 29.73 10.962 0 20.511-5.946 25.667-14.773-1.763.325-3.574.518-5.43.518"/><path fill="#98a9b4" d="m32.1 0c-17.698 0-32.1 14.399-32.1 32.1s14.399 32.1 32.1 32.1 32.1-14.399 32.1-32.1-14.398-32.1-32.1-32.1m0 57.943c-14.253 0-25.848-11.596-25.848-25.847 0-14.253 11.595-25.848 25.848-25.848 14.251 0 25.847 11.595 25.847 25.848-.0001 14.252-11.596 25.847-25.847 25.847"/><path fill="#85939c" d="m30.21 11.07c0-1.442.851-2.612 1.895-2.612l0 0c1.046 0 1.899 1.17 1.899 2.612v21.15c0 1.442-.853 2.612-1.899 2.612l0 0c-1.044 0-1.895-1.17-1.895-2.612v-21.15"/><path fill="#788288" d="m17.792 25.22c-1.168-.843-1.619-2.218-1-3.064l0 0c.617-.847 2.064-.849 3.23 0l12.393 8.978c1.164.845 1.615 2.222.999 3.066l0 0c-.612.849-2.058.849-3.224.006l-12.394-8.986"/></svg>

<?xml version="1.0" encoding="UTF-8" standalone="no"?>
<!-- Generator: Adobe Illustrator 16.0.0, SVG Export Plug-In . SVG Version: 6.00 Build 0)  -->

<svg
   xmlns:dc="http://purl.org/dc/elements/1.1/"
   xmlns:cc="http://creativecommons.org/ns#"
   xmlns:rdf="http://www.w3.org/1999/02/22-rdf-syntax-ns#"
   xmlns:svg="http://www.w3.org/2000/svg"
   xmlns="http://www.w3.org/2000/svg"
   xmlns:sodipodi="http://sodipodi.sourceforge.net/DTD/sodipodi-0.dtd"
   xmlns:inkscape="http://www.inkscape.org/namespaces/inkscape"
   version="1.1"
   id="Layer_1"
   x="0px"
   y="0px"
   width="64px"
   height="64px"
   viewBox="0 0 64 64"
   enable-background="new 0 0 64 64"
   xml:space="preserve"
   inkscape:version="0.48.5 r10040"
   sodipodi:docname="1F559.svg"
   inkscape:export-filename="D:\TESTINGEMOJI\SVGTEST\1F559.png"
   inkscape:export-xdpi="90"
   inkscape:export-ydpi="90"><metadata
   id="metadata4198"><rdf:RDF><cc:Work
       rdf:about=""><dc:format>image/svg+xml</dc:format><dc:type
         rdf:resource="http://purl.org/dc/dcmitype/StillImage" /><dc:title></dc:title></cc:Work></rdf:RDF></metadata><defs
   id="defs4196" /><sodipodi:namedview
   pagecolor="#ffffff"
   bordercolor="#666666"
   borderopacity="1"
   objecttolerance="10"
   gridtolerance="10"
   guidetolerance="10"
   inkscape:pageopacity="0"
   inkscape:pageshadow="2"
   inkscape:window-width="640"
   inkscape:window-height="480"
   id="namedview4194"
   showgrid="false"
   inkscape:zoom="3.6875"
   inkscape:cx="32"
   inkscape:cy="32"
   inkscape:window-x="466"
   inkscape:window-y="381"
   inkscape:window-maximized="0"
   inkscape:current-layer="Layer_1" />
<g
   id="g4182">
	<path
   fill="#E0E7EC"
   d="M61.827,32.097c0,16.419-13.312,29.73-29.732,29.73S2.362,48.516,2.362,32.097   c0-16.423,13.312-29.734,29.732-29.734S61.827,15.674,61.827,32.097z"
   id="path4184" />
	<path
   fill="#D1D7DA"
   d="M52.457,47.313c-16.423,0-29.734-13.311-29.734-29.734c0-5.459,1.497-10.559,4.063-14.957   C12.965,5.178,2.488,17.275,2.488,31.838c0,16.419,13.312,29.73,29.732,29.73c10.962,0,20.511-5.946,25.667-14.773   C56.124,47.12,54.313,47.313,52.457,47.313z"
   id="path4186" />
	<path
   fill="#98A9B4"
   d="M32.097,0C14.399,0,0,14.399,0,32.097s14.399,32.097,32.097,32.097s32.095-14.399,32.095-32.097   S49.794,0,32.097,0z M32.097,57.943c-14.253,0-25.848-11.596-25.848-25.847c0-14.253,11.595-25.848,25.848-25.848   c14.251,0,25.847,11.595,25.847,25.848C57.943,46.348,46.348,57.943,32.097,57.943z"
   id="path4188" />
	<path
   fill="#85939C"
   d="M30.211,11.074c0-1.442,0.851-2.612,1.895-2.612l0,0c1.046,0,1.899,1.17,1.899,2.612v21.148   c0,1.442-0.853,2.612-1.899,2.612l0,0c-1.044,0-1.895-1.17-1.895-2.612V11.074z"
   id="path4190" />
	<path
   fill="#788288"
   d="M17.792,25.217c-1.168-0.843-1.619-2.218-1.004-3.064l0,0c0.617-0.847,2.064-0.849,3.23,0l12.393,8.978   c1.164,0.845,1.615,2.222,0.999,3.066l0,0c-0.612,0.849-2.058,0.849-3.224,0.006L17.792,25.217z"
   id="path4192" />
</g>
</svg>
